X:467
T: WAS SPINNST DU FRAGTE NACHBARS FRITZ
N: F0881
O: Europa, Mitteleuropa, Deutschland
R: Liebes -, Moral - Lied
M: 2/4
L: 1/16
K: C
G,2 | C2G,2C2G,2 | E3DC2
B,2 | A,2G,2F,2E,2 | G,2F,2E,2
G,2 | C2G,2C2G,2 | E3DC2
B,2 | A,2B,2C2D2 | D4G,2
G,2 | B,2CB,G,2A,2 | B,2CA,G,2
G,2 | D2B,2D2B,2 | D4B,2
G,2 | F2EDCB,A,G, | E3DC2
C2 | A,2D2B,2G,2 | G,2E2E2
C2 | A,2D2B,2G,2 | G,4C2

@@@ Tune index: 5898
